X: 1
T: Hobby Horse, The
M: 12/8
L: 1/8
R: slide
K: Gmix
d|:B2 G FGAG2FD2A | B2dc2A  B2GF3 |
d2B c2A  B2G FGA | B2d c2A G3G2d:||
g3 ^fga  g2fd2 B | c2A  =f2A  c2A de^f |
g2b ^fga  g2fd2 c | B2d c2A  G3G3|
gab ^fga  g2fd2 B | c2A  =f2A  c2A de^f |
g2b ag^f  g2fd2 c |B2d c2A  G3G2||
